X:1
T:Der evangelische Kirchenchor
T:Brunn alles Heils
T:Max Reger
T:Text: Gerhard Tersteegen
T:Brunn alles Heils
T:Nr. 17 aus Der evangelische Kirchenchor, WoO VI/17 
T:CPDL - Creative Commons Attribution Non Commercial 3.0
C:Max Reger
Z:Gerhard Tersteegen
Z:CPDL - Creative Commons Attribution Non Commercial 3.0
%%score [ ( 1 2 ) ( 3 4 ) ]
L:1/8
Q:1/4=120
M:3/4
K:G
V:1 treble nm="S\nA"
V:2 treble 
V:3 bass nm="T\nB"
V:4 bass 
V:1
"^Etwas lebhaft"!f!"^poco"!<(! G2 | B4 d2!<)! | B4 A2 | B2!>(! ^c2 d4!>)! | z4!f!!<(! e2 | %5
w: 1.~Brunn|al- les|Heils, dich|eh- ren wir|und|
w: 2.~Der|Herr, der|Schöp- fer,|bei uns bleib,|er|
w: 3.~Der|Herr, der|Hei- land,|un- ser Licht,|uns|
w: 4.~Der|Herr, der|Trös- ter,|ob uns schweb,|sein|
w: 5.~Je-|ho- va,|Va- ter,|Sohn und Geist,|o|
 d4 B2!<)! | A4!>(! G2 | G2 F2 G4!>)! | z4!mp!!<(! A2 | B4 B2!<)! | A4 d2 |!>(! d2 ^c2 d4!>)! | %12
w: öff- nen|un- sern|Mund vor dir;|aus|dei- ner|Gott- heit|Hei- lig- tum|
w: seg- ne|uns nach|Seel und Leib,|und|uns be-|hü- te|sei- ne Macht|
w: leuch- ten|lass sein|An- ge- sicht,|dass|wir ihn|schaun und|glau- ben frei,|
w: Ant- litz|ü- ber|uns er- heb,|dass|uns sein|Bild werd|ein- ge- drückt,|
w: Se- gens-|brunn, der|e- wig fleußt:|durch-|fleuß Herz,|Sinn und|Wan- del wohl,|
 z4!f!!<(! B2 | =c4!<)! B2 | A4[Q:1/4=90]"^poco rit." G2 |!>(! G2 F2 !fermata!G4!>)! |] %16
w: dein|ho- her|Se- gen|auf uns komm!|
w: vor|al- lem|Ü- bel|Tag und Nacht!|
w: dass|er uns|e- wig|gnä- dig sei.|
w: und|geb uns|Frie- den|un- ver- rückt.|
w: mach|uns deins|Lobs und|Se- gens voll.|
V:2
 D2 | E4 D2 | D4 E2 | E2 E2 F4 | x4 G2 | F4 E2 | E4 E2 | E2 D2 D4 | x4 F2 | G4 G2 | F4 A2 | %11
 G2 E2 F4 | x4 E2 | E4 ED | (C3 D) E2 | D2 D2 D4 |] %16
V:3
 B,2 | G,4 G,2 | F,4 A,2 | G,2 A,2 A,4 | z4 C2 | A,4 ^G,2 | A,4 B,2 | A,2 A,2 B,4 | z4 D2 | D4 D2 | %10
 D4 D2 | B,2 A,2 A,4 | z4 ^G,2 | A,4 =G,2 | (A,3 B,) CB, | A,2 A,2 B,4 |] %16
V:4
 G,2 | E,4 B,,2 | D,4 C,2 | E,2 A,2 D,4 | x4 C,2 | D,4 E,2 | C,4 E,2 | C,2 D,2 G,,4 | x4 D,2 | %9
 G,4 B,,2 | D,4 F,2 | G,2 A,2 D,4 | x4 E,2 | A,,4 E,2 | =F,4 C,2 | D,2 D,2 !fermata!G,,4 |] %16

